icons/svg/announcement_20.svg

<svg width="20" height="16" xmlns="http://www.w3.org/2000/svg"><path d="M19 11.878c0 .332-.153.646-.42.859a1.215 1.215 0 01-1.034.233L3.987 10.036v-6.08l13.564-2.924c.365-.083.741.003 1.029.234.267.213.42.526.42.858v9.754zm-12.059 2.05a.808.808 0 01-.111.734c-.368.509-1.259.36-1.441-.238l-1.001-3.277 1.753.378.8 2.403zM1 6.995c0-1.003.54-2.267 1.987-2.781v5.562C1.538 9.261 1 7.997 1 6.995zM19.205.484a2.2 2.2 0 00-1.869-.428L3.187 3.106C.986 3.6.001 5.415 0 6.994c0 1.58.984 3.396 3.184 3.892l.086.018 1.163 3.811a1.805 1.805 0 001.735 1.286c.591 0 1.127-.274 1.473-.754a1.796 1.796 0 00.249-1.636l-.614-1.84 10.055 2.174a2.206 2.206 0 001.873-.426A2.095 2.095 0 0020 11.878V2.124c0-.638-.29-1.235-.795-1.64z" fill="#171B1F" fill-rule="evenodd"/></svg>

<?xml version="1.0" encoding="UTF-8"?>
<svg width="20px" height="16px" viewBox="0 0 20 16" version="1.1" xmlns="http://www.w3.org/2000/svg" xmlns:xlink="http://www.w3.org/1999/xlink">
    <!-- Generator: Sketch 59.1 (86144) - https://sketch.com -->
    <title>meetings/announcement_20</title>
    <desc>Created with Sketch.</desc>
    <g id="Icons-Webex" stroke="none" stroke-width="1" fill="none" fill-rule="evenodd">
        <g id="meetings/feedback_20" transform="translate(0.000000, -2.000000)" fill="#171B1F">
            <g id="feedback_20" transform="translate(0.000000, 2.000000)">
                <path d="M19,11.878 C19,12.21 18.847,12.524 18.58,12.737 C18.292,12.969 17.917,13.052 17.546,12.97 L3.987,10.036 L3.987,3.956 L17.551,1.032 C17.916,0.949 18.292,1.035 18.58,1.266 C18.847,1.479 19,1.792 19,2.124 L19,11.878 Z M6.941,13.928 C7.025,14.18 6.984,14.447 6.83,14.662 C6.462,15.171 5.571,15.022 5.389,14.424 L4.388,11.147 L6.141,11.525 L6.941,13.928 Z M1,6.995 C1,5.992 1.54,4.728 2.987,4.214 L2.987,9.776 C1.538,9.261 1,7.997 1,6.995 L1,6.995 Z M19.205,0.484 C18.679,0.064 17.996,-0.095 17.336,0.056 L3.187,3.106 C0.986,3.6 0.001,5.415 0,6.994 C0,8.574 0.984,10.39 3.184,10.886 L3.27,10.904 L4.433,14.715 C4.667,15.484 5.365,16.001 6.168,16.001 C6.759,16.001 7.295,15.727 7.641,15.247 C7.986,14.769 8.077,14.172 7.89,13.611 L7.276,11.771 L17.331,13.945 C17.496,13.983 17.662,14.001 17.827,14.001 C18.325,14.001 18.809,13.835 19.204,13.519 C19.71,13.114 20,12.516 20,11.878 L20,2.124 C20,1.486 19.71,0.889 19.205,0.484 L19.205,0.484 Z" id="fill"></path>
            </g>
        </g>
    </g>
</svg>
